assets/images/ico_tel4.svg

<svg width="24" height="24" viewBox="0 0 24 24" fill="none" xmlns="http://www.w3.org/2000/svg">
<path d="M18.8259 14.0966C18.8259 14.0966 18.8249 14.0956 18.8242 14.0949C17.9733 13.2501 16.827 13.2501 15.9745 14.0949C15.4662 14.5972 14.9572 15.1011 14.4339 15.6374C14.3093 15.5704 14.1818 15.5076 14.0537 15.4455C13.8612 15.3515 13.6685 15.2581 13.4887 15.146C12.1309 14.2935 10.8836 13.1565 9.67634 11.671C9.06497 10.9177 8.64588 10.2542 8.35189 9.56104C8.86596 9.06227 9.37008 8.55307 9.87257 8.04504C10.7601 7.15081 10.7582 6.03697 9.86793 5.13858C9.46066 4.72622 9.04759 4.31316 8.63638 3.90752L8.21567 3.48589C7.93443 3.20349 7.65272 2.91994 7.36429 2.63499C6.49437 1.78756 5.37472 1.78826 4.51152 2.63754C4.30672 2.84025 4.10355 3.0455 3.90015 3.25006C3.58508 3.56906 3.27024 3.88713 2.94961 4.19432C2.38967 4.72784 2.07529 5.40337 2.01552 6.20238C1.94254 7.21452 2.12487 8.2401 2.60581 9.52629C3.34785 11.5158 4.47862 13.4018 6.063 15.2919C8.0308 17.6394 10.414 19.5034 13.1467 20.8326C14.6306 21.5564 15.905 21.9254 17.1588 21.9924C17.247 21.9975 17.3335 22 17.4185 22C18.4612 22 19.2832 21.6479 19.9247 20.9292C20.2242 20.5959 20.5483 20.282 20.8724 19.9681C21.0293 19.8154 21.1863 19.6627 21.3425 19.5073C22.2154 18.6258 22.2198 17.4916 21.3518 16.6161L18.8259 14.0966ZM20.7262 18.8941C20.5743 19.0461 20.4209 19.1952 20.2673 19.3447C19.9288 19.6722 19.5911 20.0005 19.2772 20.3501C18.7631 20.9269 18.1005 21.1679 17.2053 21.1255C16.0718 21.0643 14.9028 20.7233 13.5267 20.0522C10.9049 18.7762 8.61762 16.987 6.72905 14.7336C5.20907 12.9206 4.12649 11.1178 3.41943 9.22258C2.98413 8.0587 2.81825 7.14664 2.88196 6.26609C2.92598 5.6816 3.14444 5.20901 3.55009 4.82213C3.87675 4.50915 4.19738 4.18575 4.51801 3.86165C4.71863 3.65895 4.91972 3.45531 5.12173 3.25585C5.38422 2.99801 5.66036 2.86897 5.93744 2.86897C6.21452 2.86897 6.49182 2.99801 6.75569 3.25492C7.04065 3.53663 7.32073 3.8174 7.60036 4.09818L8.02454 4.52328C8.43506 4.92869 8.84488 5.33851 9.25054 5.74925C9.80631 6.31011 9.80839 6.87676 9.25517 7.43321C8.7448 7.94982 8.23374 8.46643 7.71226 8.97053C7.45255 9.22073 7.39371 9.51101 7.53364 9.86128C7.85126 10.6265 8.31761 11.3757 9.00172 12.2189C10.2706 13.7792 11.5867 14.9778 13.0286 15.8832C13.2348 16.0113 13.4528 16.119 13.6717 16.2258C13.8075 16.292 13.9423 16.3581 14.0748 16.4303C14.3157 16.5619 14.6755 16.6416 15.0302 16.2726C15.541 15.7458 16.0634 15.2292 16.5854 14.7123C17.1029 14.1983 17.6951 14.199 18.2126 14.7114L20.7357 17.2293C21.2651 17.7633 21.2616 18.3545 20.7262 18.8941Z" fill="#023869" stroke="#023869" stroke-width="0.8"/>
</svg>

<svg width="24" height="24" fill="none" xmlns="http://www.w3.org/2000/svg"><path d="M18.826 14.097l-.002-.002c-.85-.845-1.997-.845-2.85 0-.508.502-1.017 1.006-1.54 1.542a10.16 10.16 0 00-.38-.192c-.193-.094-.386-.187-.565-.299-1.358-.853-2.605-1.99-3.813-3.475-.611-.753-1.03-1.417-1.324-2.11.514-.499 1.018-1.008 1.52-1.516.888-.894.886-2.008-.004-2.906-.407-.413-.82-.826-1.232-1.231l-.42-.422c-.282-.283-.563-.566-.852-.851-.87-.847-1.99-.847-2.852.003-.205.202-.408.408-.612.612-.315.32-.63.637-.95.944-.56.534-.875 1.21-.934 2.008-.073 1.013.109 2.038.59 3.324.742 1.99 1.873 3.876 3.457 5.766a21.41 21.41 0 007.084 5.54c1.484.724 2.758 1.093 4.012 1.16.088.005.175.008.26.008 1.042 0 1.864-.352 2.506-1.07.3-.334.623-.648.947-.962.157-.153.314-.305.47-.46.873-.882.878-2.016.01-2.892l-2.526-2.52zm1.9 4.797a38.88 38.88 0 01-.459.45c-.338.328-.676.656-.99 1.006-.514.577-1.177.818-2.072.775-1.133-.06-2.302-.402-3.678-1.073a20.556 20.556 0 01-6.798-5.318c-1.52-1.813-2.603-3.616-3.31-5.511-.435-1.164-.6-2.076-.537-2.957.044-.584.262-1.057.668-1.444.327-.313.647-.636.968-.96.2-.203.402-.407.604-.606.262-.258.538-.387.815-.387.278 0 .555.129.819.386.285.282.565.562.844.843l.425.425c.41.406.82.816 1.226 1.226.555.561.557 1.128.004 1.684a94.672 94.672 0 01-1.543 1.538c-.26.25-.318.54-.178.89.317.765.784 1.515 1.468 2.358 1.269 1.56 2.585 2.759 4.027 3.664.206.128.424.236.643.343.135.066.27.132.403.204.24.132.6.212.955-.157.511-.527 1.033-1.044 1.555-1.56.518-.515 1.11-.514 1.628-.002l2.523 2.518c.53.534.526 1.126-.01 1.665z" fill="#023869" stroke="#023869" stroke-width=".8"/></svg>
